images/index.js.svg

<?xml version="1.0" encoding="UTF-8" standalone="no"?>
<!-- Created with Inkscape (http://www.inkscape.org/) -->

<svg
   width="500"
   height="500"
   viewBox="0 0 500 500"
   version="1.1"
   id="svg1"
   inkscape:version="1.3.2 (091e20ef0f, 2023-11-25, custom)"
   sodipodi:docname="index.js.svg"
   xmlns:inkscape="http://www.inkscape.org/namespaces/inkscape"
   xmlns:sodipodi="http://sodipodi.sourceforge.net/DTD/sodipodi-0.dtd"
   xmlns="http://www.w3.org/2000/svg"
   xmlns:svg="http://www.w3.org/2000/svg">
  <sodipodi:namedview
     id="namedview1"
     pagecolor="#505050"
     bordercolor="#eeeeee"
     borderopacity="1"
     inkscape:showpageshadow="0"
     inkscape:pageopacity="0"
     inkscape:pagecheckerboard="0"
     inkscape:deskcolor="#505050"
     inkscape:document-units="px"
     inkscape:zoom="0.96390292"
     inkscape:cx="279.07375"
     inkscape:cy="234.98217"
     inkscape:window-width="1362"
     inkscape:window-height="744"
     inkscape:window-x="0"
     inkscape:window-y="20"
     inkscape:window-maximized="1"
     inkscape:current-layer="layer1"
     showguides="true">
    <sodipodi:guide
       position="250.02518,350.60736"
       orientation="-0.99997769,0.0066803918"
       id="guide30"
       inkscape:locked="false" />
    <sodipodi:guide
       position="66.396728,247.89992"
       orientation="0,-1"
       id="guide53"
       inkscape:locked="false" />
  </sodipodi:namedview>
  <defs
     id="defs1">
    <linearGradient
       id="swatch61"
       inkscape:swatch="solid">
      <stop
         style="stop-color:#5090d0;stop-opacity:1;"
         offset="0"
         id="stop61" />
    </linearGradient>
    <linearGradient
       id="swatch30"
       inkscape:swatch="solid">
      <stop
         style="stop-color:#f9f9f9;stop-opacity:1;"
         offset="0"
         id="stop30" />
    </linearGradient>
    <inkscape:perspective
       sodipodi:type="inkscape:persp3d"
       inkscape:vp_x="44.06818 : 315.96746 : 1"
       inkscape:vp_y="0 : 1000 : 0"
       inkscape:vp_z="480.74134 : 298.68846 : 1"
       inkscape:persp3d-origin="250 : 166.66667 : 1"
       id="perspective17" />
  </defs>
  <g
     inkscape:label="Layer 1"
     inkscape:groupmode="layer"
     id="layer1">
    <path
       id="path1"
       style="color:#000000;fill:#ffc340;stroke-linejoin:round;-inkscape-stroke:none;paint-order:markers fill stroke"
       d="m 88.179688,12.058594 c -2.565438,0 -4.863543,0.661085 -6.976563,1.546875 H 35.392578 c -12.57681,0 -21.8125,11.086897 -21.8125,23.05664 V 178.59375 c 0,11.96975 9.238095,23.05469 21.8125,23.05469 h 32.359375 v 233.04101 c 0,5.65335 1.687621,10.99249 5.056641,15.3418 3.369018,4.34931 8.946673,7.82031 15.371094,7.82031 H 429.86328 c 6.42441,0 12.00275,-3.47258 15.3711,-7.82226 3.36834,-4.3497 5.05468,-9.68757 5.05468,-15.33985 V 35.220703 c 0,-5.652264 -1.68634,-10.990153 -5.05468,-15.339844 -3.36835,-4.349689 -8.94669,-7.822265 -15.3711,-7.822265 z M 212.35156,152.36133 h 19.91992 a 11.765676,11.765676 0 0 1 11.76368,11.76367 v 118.56055 c 0,18.14616 -4.5429,33.84624 -14.53125,45.14257 -9.98836,11.29636 -24.98037,17.02149 -41.63282,17.02149 -11.94733,0 -24.3334,-2.94849 -35.8125,-9.83594 a 11.765676,11.765676 0 0 1 -4.91992,-14.33594 l 5.76172,-14.8789 a 11.765676,11.765676 0 0 1 16.23242,-6.27539 c 4.51529,2.25764 13.41074,4.27734 18.25781,4.27734 5.34763,0 7.42509,-1.224 9.36915,-3.62305 1.94403,-2.39902 3.82617,-7.26149 3.82617,-15.33203 V 164.125 a 11.765676,11.765676 0 0 1 11.76562,-11.76367 z m 101.03906,48.47851 c 13.62403,0 26.79932,2.35114 38.34571,7.13868 a 11.765676,11.765676 0 0 1 6.78711,14.16796 l -4.56055,15.59961 a 11.765676,11.765676 0 0 1 -15.09375,7.83203 c -8.64182,-2.95085 -19.28008,-4.88867 -27.39844,-4.88867 -7.16941,0 -12.27134,1.52402 -14.52148,2.85743 -2.25014,1.3334 -1.79297,1.09911 -1.79297,1.9375 0,0.25742 -0.031,0.22534 -0.0527,0.21874 0.0173,-0.009 0.0444,-0.004 0.0996,0.0586 0.24249,0.27629 1.42617,1.25363 3.73438,2.27148 4.61642,2.03571 12.99535,3.94559 22.05273,6.36719 9.0574,2.4216 19.05452,5.38522 27.81446,12.00586 8.75993,6.62064 15.4707,18.06857 15.4707,31.87891 0,13.89645 -6.35111,26.71795 -16.98437,34.7832 -10.63329,8.06524 -24.73402,11.78125 -40.85938,11.78125 -16.43998,0 -33.81879,-3.60939 -48.78906,-10.41406 a 11.765676,11.765676 0 0 1 -6.42383,-14.01172 l 4.56055,-15.59961 a 11.765676,11.765676 0 0 1 15.95117,-7.50195 C 282.14496,301.81478 297.7841,305 307.87109,305 c 6.43458,0 10.57435,-1.40422 12.10938,-2.40625 1.53502,-1.00203 1.32617,-0.58455 1.32617,-2.38867 0,-1.15553 -0.0125,-0.88089 -0.32812,-1.26953 -0.31566,-0.38864 -1.41857,-1.35159 -3.64258,-2.38867 -4.44803,-2.07419 -12.67148,-3.98291 -21.62305,-6.2754 -8.95157,-2.29246 -18.85787,-4.99928 -27.64453,-11.34179 -8.78666,-6.34254 -15.64258,-17.65239 -15.64258,-31.28516 0,-14.36742 7.0933,-27.39658 18.33399,-35.32422 11.24066,-7.92763 25.90545,-11.48047 42.63085,-11.48047 z"
       transform="translate(18.425862,16.136275)" />
  </g>
</svg>

<?xml version="1.0" encoding="UTF-8" standalone="no"?>
<!-- Created with Inkscape (http://www.inkscape.org/) -->

<svg
   width="500"
   height="500"
   viewBox="0 0 500 500"
   version="1.1"
   id="svg1"
   inkscape:version="1.3.2 (091e20ef0f, 2023-11-25, custom)"
   sodipodi:docname="index.js.svg"
   xmlns:inkscape="http://www.inkscape.org/namespaces/inkscape"
   xmlns:sodipodi="http://sodipodi.sourceforge.net/DTD/sodipodi-0.dtd"
   xmlns="http://www.w3.org/2000/svg"
   xmlns:svg="http://www.w3.org/2000/svg">
  <sodipodi:namedview
     id="namedview1"
     pagecolor="#505050"
     bordercolor="#eeeeee"
     borderopacity="1"
     inkscape:showpageshadow="0"
     inkscape:pageopacity="0"
     inkscape:pagecheckerboard="0"
     inkscape:deskcolor="#505050"
     inkscape:document-units="px"
     inkscape:zoom="0.96390292"
     inkscape:cx="278.55502"
     inkscape:cy="234.98217"
     inkscape:window-width="1362"
     inkscape:window-height="744"
     inkscape:window-x="0"
     inkscape:window-y="20"
     inkscape:window-maximized="1"
     inkscape:current-layer="layer1"
     showguides="true">
    <sodipodi:guide
       position="250.02518,350.60736"
       orientation="-0.99997769,0.0066803918"
       id="guide30"
       inkscape:locked="false" />
    <sodipodi:guide
       position="66.396728,247.89992"
       orientation="0,-1"
       id="guide53"
       inkscape:locked="false" />
  </sodipodi:namedview>
  <defs
     id="defs1">
    <linearGradient
       id="swatch61"
       inkscape:swatch="solid">
      <stop
         style="stop-color:#5090d0;stop-opacity:1;"
         offset="0"
         id="stop61" />
    </linearGradient>
    <linearGradient
       id="swatch30"
       inkscape:swatch="solid">
      <stop
         style="stop-color:#f9f9f9;stop-opacity:1;"
         offset="0"
         id="stop30" />
    </linearGradient>
    <inkscape:perspective
       sodipodi:type="inkscape:persp3d"
       inkscape:vp_x="44.06818 : 315.96746 : 1"
       inkscape:vp_y="0 : 1000 : 0"
       inkscape:vp_z="480.74134 : 298.68846 : 1"
       inkscape:persp3d-origin="250 : 166.66667 : 1"
       id="perspective17" />
  </defs>
  <g
     inkscape:label="Layer 1"
     inkscape:groupmode="layer"
     id="layer1">
    <g
       id="rect53-0">
      <path
         id="path1"
         style="color:#000000;fill:#ffc340;stroke-linejoin:round;-inkscape-stroke:none;paint-order:markers fill stroke"
         d="M 88.179688 12.058594 C 85.61425 12.058594 83.316145 12.719679 81.203125 13.605469 L 35.392578 13.605469 C 22.815768 13.605469 13.580078 24.692366 13.580078 36.662109 L 13.580078 178.59375 C 13.580078 190.5635 22.818173 201.64844 35.392578 201.64844 L 67.751953 201.64844 L 67.751953 434.68945 C 67.751953 440.3428 69.439574 445.68194 72.808594 450.03125 C 76.177612 454.38056 81.755267 457.85156 88.179688 457.85156 L 429.86328 457.85156 C 436.28769 457.85156 441.86603 454.37898 445.23438 450.0293 C 448.60272 445.6796 450.28906 440.34173 450.28906 434.68945 L 450.28906 35.220703 C 450.28906 29.568439 448.60272 24.23055 445.23438 19.880859 C 441.86603 15.53117 436.28769 12.058594 429.86328 12.058594 L 88.179688 12.058594 z M 212.35156 152.36133 L 232.27148 152.36133 A 11.765676 11.765676 0 0 1 244.03516 164.125 L 244.03516 282.68555 C 244.03516 300.83171 239.49226 316.53179 229.50391 327.82812 C 219.51555 339.12448 204.52354 344.84961 187.87109 344.84961 C 175.92376 344.84961 163.53769 341.90112 152.05859 335.01367 A 11.765676 11.765676 0 0 1 147.13867 320.67773 L 152.90039 305.79883 A 11.765676 11.765676 0 0 1 169.13281 299.52344 C 173.6481 301.78108 182.54355 303.80078 187.39062 303.80078 C 192.73825 303.80078 194.81571 302.57678 196.75977 300.17773 C 198.7038 297.77871 200.58594 292.91624 200.58594 284.8457 L 200.58594 164.125 A 11.765676 11.765676 0 0 1 212.35156 152.36133 z M 313.39062 200.83984 C 327.01465 200.83984 340.18994 203.19098 351.73633 207.97852 A 11.765676 11.765676 0 0 1 358.52344 222.14648 L 353.96289 237.74609 A 11.765676 11.765676 0 0 1 338.86914 245.57812 C 330.22732 242.62727 319.58906 240.68945 311.4707 240.68945 C 304.30129 240.68945 299.19936 242.21347 296.94922 243.54688 C 294.69908 244.88028 295.15625 244.64599 295.15625 245.48438 C 295.15625 245.7418 295.1252 245.70972 295.10352 245.70312 C 295.12079 245.69437 295.14795 245.69884 295.20312 245.76172 C 295.44561 246.03801 296.62929 247.01535 298.9375 248.0332 C 303.55392 250.06891 311.93285 251.97879 320.99023 254.40039 C 330.04763 256.82199 340.04475 259.78561 348.80469 266.40625 C 357.56462 273.02689 364.27539 284.47482 364.27539 298.28516 C 364.27539 312.18161 357.92428 325.00311 347.29102 333.06836 C 336.65773 341.1336 322.557 344.84961 306.43164 344.84961 C 289.99166 344.84961 272.61285 341.24022 257.64258 334.43555 A 11.765676 11.765676 0 0 1 251.21875 320.42383 L 255.7793 304.82422 A 11.765676 11.765676 0 0 1 271.73047 297.32227 C 282.14496 301.81478 297.7841 305 307.87109 305 C 314.30567 305 318.44544 303.59578 319.98047 302.59375 C 321.51549 301.59172 321.30664 302.0092 321.30664 300.20508 C 321.30664 299.04955 321.29417 299.32419 320.97852 298.93555 C 320.66286 298.54691 319.55995 297.58396 317.33594 296.54688 C 312.88791 294.47269 304.66446 292.56397 295.71289 290.27148 C 286.76132 287.97902 276.85502 285.2722 268.06836 278.92969 C 259.2817 272.58715 252.42578 261.2773 252.42578 247.64453 C 252.42578 233.27711 259.51908 220.24795 270.75977 212.32031 C 282.00043 204.39268 296.66522 200.83984 313.39062 200.83984 z " />
    </g>
    <g
       id="text1" />
  </g>
</svg>
